packages/icons/src/cet-inverse.svg

<svg viewBox="0 0 32 32" xmlns="http://www.w3.org/2000/svg"><path clip-rule="evenodd" d="m15.0038 28.5v-3.5685c-4.167-.4596-7.4757-3.7684-7.93521-7.9354h-3.56859v5.9263c0 3.0804 2.49718 5.5776 5.5776 5.5776zm-11.5038-13.4959h3.56858c.45947-4.1671 3.76822-7.47591 7.93522-7.93552v-3.56858h-5.9262c-3.08042 0-5.5776 2.49718-5.5776 5.5776zm13.4958 13.4959h5.9266c3.0804 0 5.5776-2.4972 5.5776-5.5776v-13.8448c0-3.08042-2.4972-5.5776-5.5776-5.5776h-5.9266v3.56853c4.1673.45939 7.4762 3.76827 7.9357 7.93557h1.2232c.55 0 .996.4459.996.996 0 .55-.446.996-.996.996h-1.2232c-.4595 4.1671-3.7685 7.476-7.9357 7.9354zm-1.992-5.8525v.2762c-3.0655-.4372-5.49032-2.8621-5.9274-5.9276h3.2297c.4383 1.6293 1.926 2.8286 3.6937 2.8286 2.1123 0 3.8246-1.7123 3.8246-3.8246s-1.7123-3.8247-3.8246-3.8247c-1.7677 0-3.2554 1.1993-3.6937 2.8287h-3.22971c.43705-3.0656 2.86191-5.49053 5.92741-5.9277v.33269c0 .55007.4459.99601.996.99601s.996-.44594.996-.99601v-.33276c3.0658.43698 5.4909 2.86197 5.9279 5.92777h-.3664c-.55 0-.996.4459-.996.996 0 .55.446.996.996.996h.3664c-.4371 3.0656-2.8622 5.4906-5.9279 5.9276v-.2762c0-.5501-.4459-.996-.996-.996s-.996.4459-.996.996zm.996-8.4004c-.9681 0-1.753.7848-1.753 1.753 0 .9681.7849 1.7529 1.753 1.7529s1.753-.7848 1.753-1.7529c0-.9682-.7849-1.753-1.753-1.753z" fill="#fff" fill-rule="evenodd"/></svg>

<svg width="32" height="32" viewBox="0 0 32 32" fill="none" xmlns="http://www.w3.org/2000/svg">
<path fill-rule="evenodd" clip-rule="evenodd" d="M15.0038 28.5V24.9315C10.8368 24.4719 7.5281 21.1631 7.06859 16.9961H3.5V22.9224C3.5 26.0028 5.99718 28.5 9.0776 28.5H15.0038ZM3.5 15.0041H7.06858C7.52805 10.837 10.8368 7.52819 15.0038 7.06858L15.0038 3.5H9.0776C5.99718 3.5 3.5 5.99718 3.5 9.0776V15.0041ZM16.9958 28.5H22.9224C26.0028 28.5 28.5 26.0028 28.5 22.9224V9.0776C28.5 5.99718 26.0028 3.5 22.9224 3.5H16.9958L16.9958 7.06853C21.1631 7.52792 24.472 10.8368 24.9315 15.0041H26.1547C26.7047 15.0041 27.1507 15.45 27.1507 16.0001C27.1507 16.5501 26.7047 16.9961 26.1547 16.9961H24.9315C24.472 21.1632 21.163 24.4721 16.9958 24.9315V28.5ZM15.0038 22.6475V22.9237C11.9383 22.4865 9.51348 20.0616 9.0764 16.9961H12.3061C12.7444 18.6254 14.2321 19.8247 15.9998 19.8247C18.1121 19.8247 19.8244 18.1124 19.8244 16.0001C19.8244 13.8878 18.1121 12.1754 15.9998 12.1754C14.2321 12.1754 12.7444 13.3747 12.3061 15.0041H9.07639C9.51344 11.9385 11.9383 9.51357 15.0038 9.0764V9.40909C15.0038 9.95916 15.4497 10.4051 15.9998 10.4051C16.5499 10.4051 16.9958 9.95916 16.9958 9.40909V9.07633C20.0616 9.51331 22.4867 11.9383 22.9237 15.0041H22.5573C22.0073 15.0041 21.5613 15.45 21.5613 16.0001C21.5613 16.5501 22.0073 16.9961 22.5573 16.9961H22.9237C22.4866 20.0617 20.0615 22.4867 16.9958 22.9237V22.6475C16.9958 22.0974 16.5499 21.6515 15.9998 21.6515C15.4497 21.6515 15.0038 22.0974 15.0038 22.6475ZM15.9998 14.2471C15.0317 14.2471 14.2468 15.0319 14.2468 16.0001C14.2468 16.9682 15.0317 17.753 15.9998 17.753C16.9679 17.753 17.7528 16.9682 17.7528 16.0001C17.7528 15.0319 16.9679 14.2471 15.9998 14.2471Z" fill="white"/>
</svg>
